src/icons/svg/eye-open.svg

<?xml version="1.0" encoding="UTF-8"?>
<svg width="40px" height="30px" viewBox="0 0 40 30" version="1.1" xmlns="http://www.w3.org/2000/svg"
>
    <path d="M20,0 C21.8144531,0 23.5789062,0.275559896 25.2933594,0.826679688 C27.0078125,1.37779948 28.5116927,2.09390625 29.805,2.975 C31.0983073,3.85609375 32.3155339,4.83053385 33.4566797,5.89832031 C34.5978255,6.96610677 35.5572656,8.03389323 36.335,9.10167969 C37.1127344,10.1694661 37.7855208,11.1439063 38.3533594,12.025 C38.9211979,12.9060938 39.3400781,13.619987 39.61,14.1666797 L40,15 C39.9388802,15.13 39.8566536,15.3055599 39.7533203,15.5266797 C39.649987,15.7477995 39.405,16.1994531 39.0183594,16.8816406 C38.6317188,17.5638281 38.2195052,18.2366016 37.7817187,18.8999609 C37.3439323,19.5633203 36.7667057,20.3444401 36.0500391,21.2433203 C35.3333724,22.1422005 34.5933724,22.9799609 33.8300391,23.7566016 C33.0667057,24.5332422 32.1617057,25.3165755 31.1150391,26.1066016 C30.0683724,26.8966276 28.9961458,27.5672005 27.8983594,28.1183203 C26.8005729,28.6694401 25.5655729,29.1210938 24.1933594,29.4732812 C22.8211458,29.8254687 21.4233594,30.0010417 20,30 C18.1855469,30 16.4210938,29.7244401 14.7066406,29.1733203 C12.9921875,28.6222005 11.4883073,27.9083203 10.195,27.0316797 C8.90169271,26.1550391 7.68446615,25.1872526 6.54332031,24.1283203 C5.40217448,23.069388 4.44273438,22.0082812 3.665,20.945 C2.88726562,19.8817188 2.21447917,18.9117188 1.64664063,18.035 C1.07880208,17.1582812 0.659921875,16.4421745 0.39,15.8866797 L0,15.0666797 C0.0611197917,14.9366797 0.143346354,14.7611198 0.246679688,14.54 C0.350013021,14.3188802 0.595013021,13.8655469 0.981679688,13.18 C1.36834635,12.4944531 1.7805599,11.8194531 2.21832031,11.155 C2.65608073,10.4905469 3.23330729,9.705 3.95,8.79835938 C4.66669271,7.89171875 5.40669271,7.04949219 6.17,6.27167969 C6.93330729,5.49386719 7.83830729,4.70830729 8.885,3.915 C9.93169271,3.12169271 11.0039193,2.44669271 12.1016797,1.89 C13.1994401,1.33330729 14.4344401,0.879973958 15.8066797,0.53 C17.1789193,0.180026042 18.5766927,0.00446614583 20,0.0033203125 L20,0 Z M20,3.33332031 C18.7844531,3.33332031 17.5911198,3.49388021 16.42,3.815 C15.2488802,4.13611979 14.1922135,4.55057292 13.25,5.05835937 C12.3077865,5.56614583 11.3877865,6.18002604 10.49,6.9 C9.59221354,7.61997396 8.81554688,8.32941406 8.16,9.02832031 C7.50445313,9.72722656 6.86834635,10.4783464 6.25167969,11.2816797 C5.63501302,12.085013 5.14445313,12.7727865 4.78,13.345 C4.41554688,13.9172135 4.07277344,14.49 3.75167969,15.0633594 C4.07277344,15.6277865 4.41554688,16.1944531 4.78,16.7633594 C5.14445313,17.3322656 5.63501302,18.0139193 6.25167969,18.8083203 C6.86834635,19.6027214 7.50445313,20.3449479 8.16,21.035 C8.81554688,21.7250521 9.59221354,22.4261589 10.49,23.1383203 C11.3877865,23.8504818 12.3077865,24.4582812 13.25,24.9617187 C14.1922135,25.4651562 15.2488802,25.8751562 16.42,26.1917187 C17.5911198,26.5082813 18.7844531,26.6666797 20,26.6666797 C21.2155469,26.6666797 22.4088802,26.5061979 23.58,26.185 C24.7511198,25.8638021 25.8077865,25.4515755 26.75,24.9483203 C27.6922135,24.4450651 28.6122135,23.8350651 29.51,23.1183203 C30.4077865,22.4015755 31.1844531,21.6960286 31.84,21.0016797 C32.4955469,20.3073307 33.1316536,19.5606641 33.7483203,18.7616797 C34.364987,17.9626953 34.8555469,17.2771354 35.22,16.705 C35.5844531,16.1328646 35.9272266,15.5645312 36.2483203,15 C35.9272266,14.4355469 35.5844531,13.8672135 35.22,13.295 C34.8555469,12.7227865 34.364987,12.0372396 33.7483203,11.2383594 C33.1316536,10.4394792 32.4955469,9.69279948 31.84,8.99832031 C31.1844531,8.30384115 30.4077865,7.59829427 29.51,6.88167969 C28.6122135,6.1650651 27.6922135,5.5550651 26.75,5.05167969 C25.8077865,4.54829427 24.7511198,4.13606771 23.58,3.815 C22.4088802,3.49393229 21.2155469,3.33332031 20,3.33332031 L20,3.33332031 Z M20,8.33332031 C21.84,8.33332031 23.4111068,8.9844401 24.7133203,10.2866797 C26.0155339,11.5889193 26.6666797,13.160026 26.6666797,15 C26.6666797,16.839974 26.0155729,18.4110807 24.7132812,19.7133203 C23.4109896,21.0155599 21.8398958,21.6666797 20,21.6666797 C18.1601042,21.6666797 16.5889974,21.0155469 15.2866797,19.7132813 C13.984362,18.4110156 13.3333203,16.8399219 13.3333203,15 C13.3333203,13.1600781 13.9845182,11.5889714 15.2866797,10.2866797 C16.5888411,8.98438802 18.1599479,8.33332031 20,8.33332031 Z M20,11.6666406 C19.08,11.6666406 18.2944531,11.9922266 17.6433594,12.6433203 C16.9922656,13.2944141 16.6666406,14.079974 16.6666406,15 C16.6666406,15.920026 16.9921354,16.7055729 17.6432813,17.3566406 C18.2944271,18.0077083 19.08,18.3332813 20,18.3333594 C20.92,18.3334375 21.7055469,18.0078906 22.3566406,17.3567188 C23.0077344,16.7055469 23.3333594,15.919974 23.3333594,15 C23.3333594,14.080026 23.0078646,13.2944792 22.3567187,12.6433594 C21.7055729,11.9922396 20.92,11.6666406 20,11.6666406 L20,11.6666406 Z"
          id="形状"></path>
</svg>

<svg width="40" height="30" xmlns="http://www.w3.org/2000/svg"><path d="M20 0c1.814 0 3.579.276 5.293.827 1.715.55 3.219 1.267 4.512 2.148a30.33 30.33 0 0 1 3.652 2.923c1.14 1.068 2.1 2.136 2.878 3.204a62.914 62.914 0 0 1 2.018 2.923c.568.881.987 1.595 1.257 2.142L40 15l-.247.527a25.26 25.26 0 0 1-.735 1.355 34.953 34.953 0 0 1-1.236 2.018 33.301 33.301 0 0 1-1.732 2.343 32.356 32.356 0 0 1-2.22 2.514 24.496 24.496 0 0 1-2.715 2.35 20.93 20.93 0 0 1-3.217 2.011c-1.097.551-2.332 1.003-3.705 1.355-1.372.352-2.77.528-4.193.527-1.814 0-3.579-.276-5.293-.827-1.715-.55-3.219-1.265-4.512-2.141a30.606 30.606 0 0 1-3.652-2.904c-1.14-1.059-2.1-2.12-2.878-3.183a63.006 63.006 0 0 1-2.018-2.91C1.079 17.158.66 16.442.39 15.887l-.39-.82.247-.527c.103-.221.348-.674.735-1.36.386-.686.799-1.36 1.236-2.025A34.753 34.753 0 0 1 3.95 8.798a31.426 31.426 0 0 1 2.22-2.526 24.73 24.73 0 0 1 2.715-2.357 21.21 21.21 0 0 1 3.217-2.025c1.097-.557 2.332-1.01 3.705-1.36C17.179.18 18.577.004 20 .003V0zm0 3.333c-1.216 0-2.409.16-3.58.482a15.05 15.05 0 0 0-3.17 1.243A18.274 18.274 0 0 0 10.49 6.9c-.898.72-1.674 1.43-2.33 2.128a29.927 29.927 0 0 0-1.908 2.254 29.82 29.82 0 0 0-1.472 2.063 35.373 35.373 0 0 0-1.028 1.718c.32.565.664 1.131 1.028 1.7.364.57.855 1.25 1.472 2.045a29.436 29.436 0 0 0 1.908 2.227c.656.69 1.432 1.391 2.33 2.103.898.712 1.818 1.32 2.76 1.824.942.503 1.999.913 3.17 1.23a13.66 13.66 0 0 0 7.16-.007 15.298 15.298 0 0 0 3.17-1.237 18.085 18.085 0 0 0 2.76-1.83 22.555 22.555 0 0 0 2.33-2.116 29.631 29.631 0 0 0 1.908-2.24 28.896 28.896 0 0 0 1.472-2.057c.364-.572.707-1.14 1.028-1.705a39.9 39.9 0 0 0-1.028-1.705 28.855 28.855 0 0 0-1.472-2.057 29.678 29.678 0 0 0-1.908-2.24 22.526 22.526 0 0 0-2.33-2.116 18.105 18.105 0 0 0-2.76-1.83 15.284 15.284 0 0 0-3.17-1.237A13.48 13.48 0 0 0 20 3.333zm0 5c1.84 0 3.411.651 4.713 1.954 1.303 1.302 1.954 2.873 1.954 4.713 0 1.84-.651 3.411-1.954 4.713-1.302 1.303-2.873 1.954-4.713 1.954-1.84 0-3.411-.651-4.713-1.954-1.303-1.302-1.954-2.873-1.954-4.713 0-1.84.652-3.411 1.954-4.713C16.589 8.984 18.16 8.333 20 8.333zm0 3.334c-.92 0-1.706.325-2.357.976A3.212 3.212 0 0 0 16.667 15c0 .92.325 1.706.976 2.357a3.212 3.212 0 0 0 2.357.976 3.21 3.21 0 0 0 2.357-.976A3.212 3.212 0 0 0 23.333 15c0-.92-.325-1.706-.976-2.357A3.212 3.212 0 0 0 20 11.667z"/></svg>
